tools/download-figma-icons/icons/outlined-large/rss-feed.svg

<svg width="64" height="64" viewBox="0 0 64 64" fill="none" xmlns="http://www.w3.org/2000/svg">
<path fill-rule="evenodd" clip-rule="evenodd" d="M46.9698 52H51.9738C51.1998 30.305 33.6958 12.8 11.9998 12.026V17.03C30.9358 17.8 46.1998 33.064 46.9698 52ZM53.4998 55H45.4998C44.6718 55 43.9998 54.328 43.9998 53.5C43.9998 35.028 28.9718 20 10.4998 20C9.67176 20 8.99976 19.328 8.99976 18.5V10.5C8.99976 9.672 9.67176 9 10.4998 9C35.0368 9 54.9998 28.963 54.9998 53.5C54.9998 54.328 54.3278 55 53.4998 55ZM30.9454 52H35.9564C35.2064 39.132 24.8684 28.794 12.0004 28.044V33.055C22.1114 33.789 30.2114 41.889 30.9454 52ZM37.5004 55H29.5004C28.6724 55 28.0004 54.328 28.0004 53.5C28.0004 43.851 20.1494 36 10.5004 36C9.67236 36 9.00036 35.328 9.00036 34.5V26.5C9.00036 25.672 9.67236 25 10.5004 25C26.2154 25 39.0004 37.785 39.0004 53.5C39.0004 54.328 38.3284 55 37.5004 55ZM12.0001 48.5C12.0001 46.57 13.5701 45 15.5001 45C17.4301 45 19.0001 46.57 19.0001 48.5C19.0001 50.43 17.4301 52 15.5001 52C13.5701 52 12.0001 50.43 12.0001 48.5ZM9.00006 48.5C9.00006 52.084 11.9161 55 15.5001 55C19.0841 55 22.0001 52.084 22.0001 48.5C22.0001 44.916 19.0841 42 15.5001 42C11.9161 42 9.00006 44.916 9.00006 48.5Z" fill="black"/>
</svg>

<svg width="64" height="64" viewBox="0 0 64 64" fill="none" xmlns="http://www.w3.org/2000/svg"><path fill-rule="evenodd" clip-rule="evenodd" d="M46.97 52h5.004C51.2 30.305 33.696 12.8 12 12.026v5.004C30.936 17.8 46.2 33.064 46.97 52Zm6.53 3h-8a1.5 1.5 0 0 1-1.5-1.5C44 35.028 28.972 20 10.5 20A1.5 1.5 0 0 1 9 18.5v-8A1.5 1.5 0 0 1 10.5 9C35.037 9 55 28.963 55 53.5a1.5 1.5 0 0 1-1.5 1.5Zm-22.555-3h5.011C35.206 39.132 24.868 28.794 12 28.044v5.011c10.111.734 18.211 8.834 18.945 18.945Zm6.555 3h-8a1.5 1.5 0 0 1-1.5-1.5C28 43.851 20.15 36 10.5 36A1.5 1.5 0 0 1 9 34.5v-8a1.5 1.5 0 0 1 1.5-1.5C26.215 25 39 37.785 39 53.5a1.5 1.5 0 0 1-1.5 1.5ZM12 48.5c0-1.93 1.57-3.5 3.5-3.5s3.5 1.57 3.5 3.5-1.57 3.5-3.5 3.5-3.5-1.57-3.5-3.5Zm-3 0c0 3.584 2.916 6.5 6.5 6.5s6.5-2.916 6.5-6.5-2.916-6.5-6.5-6.5A6.508 6.508 0 0 0 9 48.5Z" fill="currentColor"/></svg>
